!!!COM: Haydn, Franz Joseph
!!!OPR: String Quartet in B-flat Major
!!!ONM: Opus 71, No. 1
!!!OTL: Affettuoso 
!!!OMV: 4
!!!SCT: H III:69
!!!SCA: Thematisch-bibliographisches Werkevererzeichnis (A. van Hoboken)
!!!YOR: Trautwein Edition
!!!EED: Frances Bennion
!!!ENC: Frances Bennion
!!!CDT: 1732/3/31/-1809/5/31/
!!!OCY: Österreich
!!!YEC: Copyright (c) 1994, 2000 Center for Computer Assisted Research in the Humanities
!!!YEM: Rights to all derivative editions reserved.
!!!YEM: Refer to licensing agreement for further details.
!!!YEN: United States of America
**kern	**kern	**kern	**kern
*k[b-e-]	*k[b-e-]	*k[b-e-]	*k[b-e-]
*B-:	*B-:	*B-:	*B-:
*clefF	*clefF	*clefC3	*clefF4
*M2/4	*M2/4	*M2/4	*M2/4
*tb32	*tb32	*tb32	*tb32
=0-	=0-	=0-	=0-
4.r	4.r	4.r	4.r
8f	8r	8r	8r
=1	=1	=1	=1
4b-	8r	8r	8BB-
.	8f	8d	8r
8cc	8r	8r	8FF
16b-	8e-	8A	8r
16cc	.	.	.
=2	=2	=2	=2
4.b-	8r	8r	4BB-
.	8d	16B-	.
.	.	16F	.
.	8d	8D	4r
8cc	8r	8F	.
=3	=3	=3	=3
4dd	2r	8B-	8r
.	.	8r	8BB-
8ee-	.	8c	8r
16dd	.	8r	8BB-
16ee-	.	.	.
=4	=4	=4	=4
4.ff	8r	8d	8r
.	16d	4.r	8BB-
.	16f	.	.
.	8b-	.	8BB-
16ddd	8r	.	8r
16ccc	.	.	.
=5	=5	=5	=5
16bb-	8r	8r	2r
16aa	.	.	.
16gg	8d	8B-	.
16ff	.	.	.
16ee-	8e-	8c	.
16dd	.	.	.
16cc	8f	8d	.
16b-	.	.	.
=6	=6	=6	=6
8a	8e-	8c	2r
8a	8e-	8c	.
8a	8e-	8c	.
16eee-	8r	8r	.
16ddd	.	.	.
=7	=7	=7	=7
16ccc	8r	8r	2r
16bb-	.	.	.
16aa	8e-	8c	.
16gg	.	.	.
16ff	8f	8d	.
16ee-	.	.	.
16dd	8g	8e-	.
16cc	.	.	.
=8	=8	=8	=8
8b-	8f	8d	4.r
8b-	8f	8d	.
8b-	8f	8d	.
8ff	8dd	16D	16BB-
.	.	16E-	16C
=9	=9	=9	=9
8ff	8dd	16F	16D
.	.	16G	16E-
8ff	8dd	16A	16F
.	.	16B-	16G
8ff	8dd	16c	16A
.	.	16d	16B-
8ff	8dd	16e-	16c
.	.	16f	16d
=10	=10	=10	=10
4ff	4dd	4.g	4.e-
8ee-	8cc	.	.
8dd	8b-	16g	8e
.	.	16a	.
=11	=11	=11	=11
8cc	4f	4b-	2f
8cc	.	.	.
16cc	4r	4a	.
16b-	.	.	.
16cc	.	.	.
16dd	.	.	.
=12	=12	=12	=12
4b-	8r	4b-	4B-
.	16d	.	.
.	16f	.	.
8r	8b-	4r	4r
16ddd	8r	.	.
16ccc	.	.	.
=13	=13	=13	=13
16bb-	2r	8r	8r
16aa	.	.	.
16gg	.	8d	8B-
16ff	.	.	.
16ee-	.	8e-	8c
16dd	.	.	.
16cc	.	8f	8d
16b-	.	.	.
=14	=14	=14	=14
8a	8f	8e-	8c
8a	8f	8e-	8c
8a	8f	8e-	8c
16eee-	8r	8r	8r
16ddd	.	.	.
=15	=15	=15	=15
16ccc	2r	8r	8r
16bb-	.	.	.
16aa	.	8e-	8c
16gg	.	.	.
16ff	.	8f	8d
16ee-	.	.	.
16dd	.	8g	8e-
16cc	.	.	.
=16	=16	=16	=16
8b	8a-	8f	8d
8b	8a-	8f	8d
8b	8a-	8f	8d
16fff	16B	16G	8r
16eee-	16c	16A	.
=17	=17	=17	=17
16ddd	16d	16B	2G
16ccc	16e-	16c	.
16bb	16f	16d	.
16aa-	16g	16e-	.
16gg	16a	16f	.
16ff	16b	16g	.
16ee-	16cc	16a	.
16dd	16dd	16b	.
=18	=18	=18	=18
8ee-	16ee-	16cc	4C
.	16dd	16b-	.
4ccc	16cc	16a	.
.	16b-	16g	.
.	16a	16f	8r
.	16g	16e-	.
8aa	16f	16d	8F
.	16e-	16c	.
=19	=19	=19	=19
16bb-	8d	8B-	8B-
16ff	.	.	.
16dd	8r	8r	8r
16ff	.	.	.
16ee-	8e-	8A	8F
16cc	.	.	.
16a	8r	8r	8r
16cc	.	.	.
=20	=20	=20	=20
4.b-	4.d	8B-	8BB-
.	.	8f	8BB-
.	.	8b-	8BB-
8cc	8e-	8a	8BB-
=21	=21	=21	=21
8b-	8d	8b-	8BB-
8cc	8e-	8a	8BB-
8b-	8d	8b-	8BB-
8cc	8e-	8a	8BB-
=22	=22	=22	=22
8b-	2d	8b-	8BB-
8dd	.	4f	8BB-
8ff	.	.	8BB-
16ee-	.	8f#	8BB-
16dd	.	.	.
=23	=23	=23	=23
4.cc	4.e-	4.g	8BB-
.	.	.	8BB-
.	.	.	8BB-
8b	8f	8a-	8BB-
=24	=24	=24	=24
8cc	8e-	8g	8BB-
8b	8f	8a-	8BB-
8cc	8e-	8g	8BB-
8b	8f	8a-	8BB-
=25	=25	=25	=25
8cc	2e-	2g	8BB-
8ee-	.	.	8BB-
8gg	.	.	8BB-
16ff	.	.	8BB-
16ee-	.	.	.
=26	=26	=26	=26
4.dd	4.f	4.a-	8BB-
.	.	.	8BB-
.	.	.	8BB-
8ee-	8e-	8g	8BB-
=27	=27	=27	=27
8dd	8f	8a-	8BB-
8ee-	8e-	8g	8BB-
8dd	8f	8a-	8BB-
8ee-	8e-	8g	8BB-
=28	=28	=28	=28
16dd	4.f	4.a-	8BB-
16ee-	.	.	.
16ff	.	.	8BB-
16gg	.	.	.
8aa-	.	.	8BB-
16gg	8b-	8d	8BB-
16ff	.	.	.
=29	=29	=29	=29
8ff#	2b-	4e-	4E-
4gg	.	.	.
.	.	4d	4r
[8ff	.	.	.
=30	=30	=30	=30
8ff]	4a	4c	2r
4ee-	.	.	.
.	4b-	4B-	.
[8dd	.	.	.
=31	=31	=31	=31
8dd]	2g	4e-	2r
4cc	.	.	.
.	.	4e	.
8b-	.	.	.
=32	=32	=32	=32
16a	4f	4f	2r
16cc	.	.	.
16b-	.	.	.
16a	.	.	.
16b-	4r	4r	.
16cc	.	.	.
16dd	.	.	.
16ee	.	.	.
=33	=33	=33	=33
4ff	8r	2r	2r
.	8f	.	.
8gg	8e	.	.
16ff	8c	.	.
16gg	.	.	.
=34	=34	=34	=34
4aa	4f	4.r	2r
8bb-	8g	.	.
16aa	16f	8c	.
16bb-	16g	.	.
=35	=35	=35	=35
8aa	4a	4f	2r
4ccc	.	.	.
.	8b-	8g	.
8ee	16a	16f	.
.	16b-	16g	.
=36	=36	=36	=36
16ff	8cc	8a	2r
16gg	.	.	.
16aa	4a	4f	.
16bb-	.	.	.
8ccc	.	.	.
8ee	16b-	16g	.
.	32a	32f	.
.	32b-	32g	.
=37	=37	=37	=37
8ff	8cc	8a	2r
4aa	8e	8c#	.
.	8f	8d	.
8cc#	8g	8e	.
=38	=38	=38	=38
8dd	8a	8f	2r
4ff	8c#	8A	.
.	8d	8B-	.
8a	8e-	8c	.
=39	=39	=39	=39
8b-	8d	8d	8r
4dd	4b-	8F#	8D
.	.	8G	8E
8cc	8a	8A	8F#
=40	=40	=40	=40
8b-	8g	8B-	8G
8a	8f#	8c	8A
8g	8g	8d	8B-
8f	8g	8d	8B
=41	=41	=41	=41
8e	2g	2e	8c
8cc	.	.	8c
8cc	.	.	8c
16b	.	.	8c
16cc	.	.	.
=42	=42	=42	=42
8b	2b 2f	2d	8c
8ff	.	.	8c
8ff	.	.	8c
16ee	.	.	8c
16ff	.	.	.
=43	=43	=43	=43
8ee	2g 2cc	2e	8c
8ccc	.	.	8c
8ccc	.	.	8c
16bb	.	.	8c
16ccc	.	.	.
=44	=44	=44	=44
8bb	2f 2dd	2b	8c
8ff	.	.	8c
8ff	.	.	8c
16ee	.	.	8c
16ff	.	.	.
=45	=45	=45	=45
8ee	8g 8cc	4cc	[2c
16gg	16ee	.	.
16aa	16ff	.	.
8bb-	8gg	8e	.
8aa	8ff	8f	.
=46	=46	=46	=46
8gg	8ee	4g	2c]
8ff	8dd	.	.
8ee	8cc	4r	.
8dd	8b-	.	.
=47	=47	=47	=47
2cc	2a	2r	8C
.	.	.	8c
.	.	.	8c
.	.	.	8c
=48	=48	=48	=48
2b-	2g	2r	8c
.	.	.	8c
.	.	.	8c
.	.	.	8c
=49	=49	=49	=49
8a	8f#	4e-	4c
4a	4f#	.	.
.	.	8d	8B-
8b-	8g	8r	8r
=50	=50	=50	=50
8r	8r	4d-	4B-
4g	4e	.	.
.	.	4c	8A
[8a	[8f	.	8F
=51	=51	=51	=51
8a]	8f]	8d	4BB-
8g	8d	8B-	.
8f	8c	8A	4C
8e	8B-	8G	.
=52	=52	=52	=52
4ee-	4f#	8r	8r
.	.	4c	4A
8dd	8g	.	.
8r	8r	8d	8B-
=53	=53	=53	=53
4dd-	4e	8r	8r
.	.	4B-	4G
[4cc	[4f	.	.
.	.	8c	8A
=54	=54	=54	=54
8cc]	8f]	4d	4B-
8b-	8g	.	.
8a	8f	8c	4c
8g	8e	8B-	.
=55	=55	=55	=55
16f	8f	8A	8F
16ff	.	.	.
16cc	4c	4A	8F
16a	.	.	.
16f	.	.	8F
16cc	.	.	.
16a	8c	8A	8F
16f	.	.	.
=56	=56	=56	=56
16e	8e 8G	8B-	8F
16bb-	.	.	.
16gg	4e 4G	4B-	8F
16ee	.	.	.
16cc	.	.	8F
16b-	.	.	.
16g	8e 8G	8B-	8F
16e	.	.	.
=57	=57	=57	=57
16f	8f 8A	8A	8F
16ff	.	.	.
16cc	4c	4A	8F
16a	.	.	.
16f	.	.	8F
16cc	.	.	.
16a	8c	8A	8F
16f	.	.	.
=58	=58	=58	=58
16e	8e 8G	8B-	8F
16bb-	.	.	.
16gg	4G 4e	4B-	8F
16ee	.	.	.
16cc	.	.	8F
16b-	.	.	.
16g	8e 8G	8B-	8F
16e	.	.	.
=59	=59	=59	=59
16f	16f	8A	4F
16cc	16a	.	.
16b-	16g	8r	.
16a	16f	.	.
16g	16e	8c	8r
16b-	16g	.	.
16a	16f	8r	8C
16g	16e	.	.
=60	=60	=60	=60
4a	4f	16A	16F
.	.	16c	16A
.	.	16B-	16G
.	.	16A	16F
8r	4r	16G	16E
.	.	16B-	16G
16dd	.	16A	16F
16cc	.	16G	16E
=61	=61	=61	=61
16a	16f	4A	4F
16cc	16a	.	.
16b-	16g	.	.
16a	16f	.	.
16g	16e	4r	8r
16b-	16g	.	.
16a	16f	.	8C
16g	16e	.	.
=62	=62	=62	=62
8a	4f	16A	16F
.	.	16c	16A
4cc	.	16B-	16G
.	.	16A	16F
.	4r	16G	16E
.	.	16B-	16G
8cc	.	16A	16F
.	.	16G	16E
=63	=63	=63	=63
16cc	2r	16F	16D
16a	.	16A	16F
16b-	.	16G	16E
16b-	.	16F	16D
16b-	.	16E	16C
16g	.	16G	16E
16a	.	16F	16D
16a	.	16E	16C
=64	=64	=64	=64
16a	16d	4D	16BB-
16d	16f	.	16D
16g	16e	.	16C
16g	16d	.	16BB-
16g	16c	4r	16AA
16e	16e	.	16C
16f	16d	.	16BB-
16f	16c	.	16AA
=65	=65	=65	=65
16e	2B-	4r	4GG
16f	.	.	.
16g	.	.	.
16a	.	.	.
16b-	.	4g	4CC
16cc	.	.	.
16dd	.	.	.
16ee	.	.	.
=66	=66	=66	=66
4.ff	8A	8a	4FF
.	4cc	8a	.
.	.	8a	4r
16gg	8cc	8b-	.
16ee	.	.	.
=67	=67	=67	=67
16ff	[2cc	8a	2r
16aa	.	.	.
16gg	.	8b-	.
16ee	.	.	.
16ff	.	8a	.
16aa	.	.	.
16gg	.	8b-	.
16ee	.	.	.
=68	=68	=68	=68
8ff	2cc_	8a	2r
4ff	.	8a	.
.	.	8a	.
16gg	.	8b-	.
16ee	.	.	.
=69	=69	=69	=69
16ff	2cc]	8a	2r
16aa	.	.	.
16gg	.	8b-	.
16ee	.	.	.
16ff	.	8a	.
16aa	.	.	.
16gg	.	8b-	.
16ee	.	.	.
=70	=70	=70	=70
16ff	2f 2cc	4a	2r
16gg	.	.	.
16aa	.	.	.
16bb-	.	.	.
16ccc	.	4A	.
16ddd	.	.	.
16eee	.	.	.
16fff	.	.	.
=71	=71	=71	=71
8ddd	4f 4dd	8B-	2r
8ddd	.	8r	.
8r	8r	8b-	.
8bb-	8gg	8r	.
=72	=72	=72	=72
8r	8r	8cc	2r
8aa	8ff	8r	.
8r	8r	8b-	.
8gg	8ee	8r	.
=73	=73	=73	=73
8ccc	8aa	8r	8r
8r	8r	8cc	8a
8bb-	8gg	8r	8r
8r	8r	8b-	8g
=74	=74	=74	=74
8aa	8ff	8r	8r
8r	8r	8a	8f
8gg	8cc	8r	8r
8r	8r	8g	8c
=75	=75	=75	=75
24ccc	24aa	8r	8r
24ccc	24aa	.	.
24ccc	24aa	.	.
8r	8r	8cc	8a
24bb-	24gg	8r	8r
24bb-	24gg	.	.
24bb-	24gg	.	.
8r	8r	8b-	8g
=76	=76	=76	=76
24aa	24ff	8r	8r
24aa	24ff	.	.
24aa	24ff	.	.
8r	8r	8a	8f
24gg	24cc	8r	8r
24gg	24cc	.	.
24gg	24cc	.	.
8r	8r	8g	8c
=77	=77	=77	=77
[2ff	8r	8r	2r
.	8a	8c	.
.	8f	8A	.
.	8b-	8d	.
=78	=78	=78	=78
4.ff]	8g	8B-	4.r
.	8cc	8e-	.
.	8a	8c	.
8ff#	8ee-	8cc	8A
=79	=79	=79	=79
8gg	8dd	8b-	8B-
8aa	8cc	8ee-	8F#
8bb-	8b-	8dd	8G
8ddd	8bb-	8r	8BB-
=80	=80	=80	=80
8ccc	8aa	4.r	2C
8bb-	8gg	.	.
8aa	8ff	.	.
8gg	8ee	8b-	.
=81	=81	=81	=81
[2ff	8ff	8a	8FF
.	8a	8A	8F
.	8f	8c	8A
.	8b-	8B-	8G
=82	=82	=82	=82
4.ff]	8g	8d	8B-
.	8cc	8c	8A
.	8a	8e-	8c
8ff#	8ee-	8cc	8A
=83	=83	=83	=83
8gg	8dd	8b-	8B-
8aa	8cc	8ee-	8F#
8bb-	8b-	8dd	8G
8ddd	8bb-	8r	8BB-
=84	=84	=84	=84
8ccc	8aa	8r	2C
8bb-	8gg	8dd	.
8aa	8ff	8cc	.
8gg	8ee	8b-	.
=85	=85	=85	=85
4ff	4ff	4a	8FF
.	.	.	8F
8r	4A 4f	4c	8F
8cc	.	.	8F
=86	=86	=86	=86
16b	2g 2B-	2e 2c	8F
16cc	.	.	.
16dd	.	.	8F
16cc	.	.	.
16b-	.	.	8F
16a	.	.	.
16b-	.	.	8F
16g	.	.	.
=87	=87	=87	=87
8f	2A 2f	2c 2f	8FF
4f	.	.	8F
.	.	.	8F
16a	.	.	8F
16f	.	.	.
=88	=88	=88	=88
16e	2B- 2g	2e 2c	8F
16f	.	.	.
16g	.	.	8F
16e	.	.	.
16c	.	.	8F
16d	.	.	.
16e	.	.	8F
16c	.	.	.
=89	=89	=89	=89
8f	8A 8f	8f	8FF
4f	4f 4A	4c	8F
.	.	.	8F
8ccc	8f 8A	8c	8F
=90	=90	=90	=90
16bb	8B- 8g	8c 8e	8FF
16ccc	.	.	.
16ddd	4B- 4g	4e 4c	8F
16ccc	.	.	.
16bb-	.	.	8F
16aa	.	.	.
16bb-	8B- 8g	8e 8c	8F
16gg	.	.	.
=91	=91	=91	=91
8ff	8A 8f	8c 8f	8FF
4ff	4f 4A	4c 4f	8F
.	.	.	8F
16aa	8A 8f	8f 8c	8F
16ff	.	.	.
=92	=92	=92	=92
16ee	8g 8B-	8e 8c	8FF
16ff	.	.	.
16gg	4B- 4g	4e 4c	8F
16ee	.	.	.
16cc	.	.	8F
16dd	.	.	.
16ee	8B- 8g	8e 8c	8F
16cc	.	.	.
=93	=93	=93	=93
16ff	4A 4f	4f 4c	8FF
16gg	.	.	.
16aa	.	.	8F
16ff	.	.	.
16cc	4B- 4g	4e 4c	8FF
16dd	.	.	.
16ee	.	.	8F
16cc	.	.	.
=94	=94	=94	=94
16ff	4A 4f	4f 4c	8FF
16gg	.	.	.
16aa	.	.	8F
16ff	.	.	.
16cc	4B- 4g	4e 4c	8FF
16dd	.	.	.
16ee	.	.	8F
16cc	.	.	.
=95	=95	=95	=95
8ff	8f 8A	8c 8f	8FF
8r	8r	8r	8r
8aa 8cc	8f 8A	8f 8c	8FF
8r	8r	8r	8r
=96	=96	=96	=96
4ff 4a	4f 4A	4c 4f	4FF
4r	4r	4r	8r
.	.	.	8c
=97	=97	=97	=97
2r	2r	4.r	16B
.	.	.	16c
.	.	.	16d
.	.	.	16c
.	.	.	16B-
.	.	.	16A
.	.	8cc	16B-
.	.	.	16G
=98	=98	=98	=98
2r	4.r	16b	8A
.	.	16cc	.
.	.	16dd	8f
.	.	16cc	.
.	.	16b-	8g
.	.	16a	.
.	8ee	16b-	8c
.	.	16g	.
=99	=99	=99	=99
4.r	16ee	4.a	4f
.	16ff	.	.
.	16gg	.	.
.	16ff	.	.
.	16ee-	.	4F
.	16dd	.	.
8aa	16ee-	8cc	.
.	16cc	.	.
=100	=100	=100	=100
16aa	2dd	2f	4.B-
16bb-	.	.	.
16ccc	.	.	.
16bb-	.	.	.
16aa-	.	.	.
16gg	.	.	.
16aa-	.	.	8B-
16ff	.	.	.
=101	=101	=101	=101
4.gg	16dd	4.G 4.d	16B
.	16ee-	.	16c
.	16ff	.	16d
.	16ee-	.	16c
.	16dd	.	16B
.	16cc	.	16A
16g	16dd	8g	16B
16dd	16b	.	16G
=102	=102	=102	=102
16dd	4g	16f#	2c
16ee-	.	16g	.
16ff	.	16a	.
16dd	.	16g	.
16dd	4r	16f	.
16cc	.	16e-	.
16dd	.	16f	.
16b	.	16d	.
=103	=103	=103	=103
16b	4.r	4e-	4C
16cc	.	.	.
16dd	.	.	.
16cc	.	.	.
16b-	.	4e	4C#
16a	.	.	.
16b-	8g	.	.
16g	.	.	.
=104	=104	=104	=104
4a	16f#	8d	2D
.	16g	.	.
.	16a	8d	.
.	16g	.	.
8r	16a	16f#	.
.	16b-	16g	.
8dd	16cc	16a	.
.	16b-	16g	.
=105	=105	=105	=105
16ff#	16cc	16a	2D
16gg	16dd	16b-	.
16aa	16ee-	16cc	.
16gg	16dd	16b-	.
16aa	16ff#	16a	.
16bb-	16gg	16g	.
16ccc	16aa	16f#	.
16bb-	16gg	16g	.
=106	=106	=106	=106
16ccc	16aa	16cc	16a
16ddd	16bb-	16b-	16g
16eee-	16ccc	16a	16f#
16ddd	16bb-	16b-	16g
8eee-	8ccc	8a	8f#
8eee-	8ccc	8a	8f#
=107	=107	=107	=107
4.eee-	4.ccc	4.a	4.f#
8ddd	8bb-	8b-	8g
=108	=108	=108	=108
16ccc	16aa	16cc	16a
16ddd	16bb-	16b-	16g
16eee-	16ccc	16a	16f#
16ddd	16bb-	16b-	16g
8eee-	8ccc	8a	8f#
8eee-	8ccc	8a	8f#
=109	=109	=109	=109
4.eee-	4.ccc	4.a	4.f#
8ddd	8bb-	8b-	8g
=110	=110	=110	=110
16ccc	16aa	16cc	16a
16ddd	16bb-	16b-	16g
16eee-	16ccc	16a	16f#
16ddd	16bb-	16b-	16g
8eee-	8ccc	8a	8f#
8eee-	8ccc	8E-	8CC
=111	=111	=111	=111
8ccc	8aa	8F#	8EE-
8ccc	8aa	8F#	8EE-
8aa	8ff#	8A	8FF#
8aa	8ff#	8A	8FF#
=112	=112	=112	=112
8ff#	8ee-	8c	8AA
8ff#	8ee-	8c	8AA
8ee-	8cc	8e-	8C
8ee-	8cc	8e-	8C
=113	=113	=113	=113
8cc	8a	8f#	8E-
8cc	8a	8F#	8E-
8a	8f#	8A	8F#
8a	8f#	8A	8F#
=114	=114	=114	=114
2f#	2e-	2c	2A
=115	=115	=115	=115
2g	2e	2c#	2B-
=116	=116	=116	=116
8b-	8g	8G 8d	8D
8dd	8b-	8r	8r
8r	8r	8A	8D
8cc	8a	8r	8r
=117	=117	=117	=117
8r	8r	8B-	8D
8b-	8g	8r	8r
8r	8r	8c	8D
8a	8f#	8r	8r
=118	=118	=118	=118
24dd	24b-	8r	8r
24dd	24b-	.	.
24dd	24b-	.	.
8r	8r	8d	8B-
24cc	24a	8r	8r
24cc	24a	.	.
24cc	24a	.	.
8r	8r	8c	8A
=119	=119	=119	=119
24b-	24g	8r	8r
24b-	24g	.	.
24b-	24g	.	.
8r	8r	8B-	8G
24a	24f#	8r	8r
24a	24f#	.	.
24a	24f#	.	.
8r	8r	8A	8D
=120	=120	=120	=120
[2g	8g	[2G	8GG
.	8B-	.	8D
.	8G	.	8BB-
.	8c	.	8E-
=121	=121	=121	=121
4.g]	8A	4.G]	8C
.	8d	.	8F
.	8B	.	8D
8a-	8d	8B	8F
=122	=122	=122	=122
8g	8e-	8c	8E-
8b	8a-	8d	8F
8cc	8g	8e-	8E-
8dd	8f	8B	8D
=123	=123	=123	=123
8ee-	8e-	8c	8C
8dd	8b	8a-	8D
8cc	8cc	8g	8E-
8b-	8g	8c	8E
=124	=124	=124	=124
8a	8c	8f	8F
8g	8e	8B-	8G
8f	8f	8A	8A
8a	8e-	8c	8F
=125	=125	=125	=125
4b-	8d	8d	8BB-
.	8f	8f	8r
8cc	8r	8r	8FF
16b-	8e-	8A	8r
16cc	.	.	.
=126	=126	=126	=126
4.b-	8r	8r	4BB-
.	8d	16B-	.
.	.	16F	.
.	8d	8D	4r
8cc	8r	8F	.
=127	=127	=127	=127
4dd	2r	8B-	8r
.	.	8r	8BB-
8ee-	.	8c	8r
16dd	.	8r	8BB-
16ee-	.	.	.
=128	=128	=128	=128
4.ff	8r	4d	8r
.	16d	.	8BB-
.	16f	.	.
.	8b-	4r	8BB-
16ddd	8r	.	8r
16ccc	.	.	.
=129	=129	=129	=129
16bb-	8r	8r	2r
16aa	.	.	.
16gg	8d	8B-	.
16ff	.	.	.
16ee-	8e-	8c	.
16dd	.	.	.
16cc	8f	8d	.
16b-	.	.	.
=130	=130	=130	=130
8a	8e-	8c	2r
8a	8e-	8c	.
8a	8e-	8c	.
16eee-	8r	8r	.
16ddd	.	.	.
=131	=131	=131	=131
16ccc	8r	8r	2r
16bb-	.	.	.
16aa	8e-	8c	.
16gg	.	.	.
16ff	8f	8d	.
16ee-	.	.	.
16dd	8g	8e-	.
16cc	.	.	.
=132	=132	=132	=132
8b-	8f	8d	4.r
8b-	8f	8d	.
8b-	8f	8d	.
8ff	8dd	16D	16BB-
.	.	16E-	16C
=133	=133	=133	=133
8ff	8dd	16F	16D
.	.	16G	16E-
8ff	8dd	16A	16F
.	.	16B-	16G
8ff	8dd	16c	16A
.	.	16d	16B-
8ff	8dd	16e-	16c
.	.	16f	16d
=134	=134	=134	=134
4ff	4dd	4.g	4.e-
8ee-	8cc	.	.
8dd	8b-	16g	8e
.	.	16a	.
=135	=135	=135	=135
8cc	4f	4b-	2f
8cc	.	.	.
16cc	4r	4a	.
16b-	.	.	.
16cc	.	.	.
16dd	.	.	.
=136	=136	=136	=136
4b-	8r	4b-	4B-
.	16d	.	.
.	16f	.	.
4r	8b-	4r	4r
.	16dd	.	.
.	16cc	.	.
=137	=137	=137	=137
8r	16b-	8r	8r
.	16a	.	.
8dd	16g	8F	8BB-
.	16f	.	.
8dd	16e-	8F	8BB-
.	16d	.	.
8dd	16c	8F	8BB-
.	16B-	.	.
=138	=138	=138	=138
16ee-	8A	4F	4C
16ff	.	.	.
16ee-	8A	.	.
16dd	.	.	.
8ee-	8A	4r	4r
8r	16ee-	.	.
.	16dd	.	.
=139	=139	=139	=139
8r	16cc	8r	8r
.	16b-	.	.
8ee-	16a	8A	8C
.	16g	.	.
8ee-	16f	8A	8C
.	16e-	.	.
8ee-	16d	8A	8C
.	16c	.	.
=140	=140	=140	=140
16ff	8B-	4.A-	4.D
16gg	.	.	.
16ff	8B-	.	.
16ee-	.	.	.
8ff	8B-	.	.
16ccc	16aa-	16D	16BB-
16bb-	16gg	16E-	16C
=141	=141	=141	=141
16aa-	16ff	16F	16D
16gg	16ee-	16G	16E-
16ff	16dd	16A-	16F
16ee-	16cc	16B-	16G
16dd	16b-	16c	16A-
16cc	16a-	16d	16B-
16b-	16g	16e-	16c
16a-	16f	16f	16d
=142	=142	=142	=142
8g	8e-	8g	4e-
4gg	4b-	8e-	.
.	.	8d	4r
[8ff	8b-	8b-	.
=143	=143	=143	=143
8ff]	4a	8c	2r
4ee-	.	8f	.
.	4b-	8B-	.
[8dd	.	8f	.
=144	=144	=144	=144
8dd]	2g	8E-	2r
4cc	.	8e-	.
.	.	8E	.
8b-	.	8e	.
=145	=145	=145	=145
8a	4f	4f	4.r
16gg	.	.	.
16ff	.	.	.
8ff	4r	8r	.
8ee-	.	8A	8F
=146	=146	=146	=146
8dd	2r	4d	4B-
8ff	.	.	.
8a	.	8e-	8c
16g	.	16d	16B-
16a	.	16e-	16c
=147	=147	=147	=147
8b-	4.r	4.f	4.d
16gg	.	.	.
16ff	.	.	.
8ff	.	.	.
8ff	8a	8e-	8c
=148	=148	=148	=148
[2ff	4b-	4f	4d
.	8cc	8g	8e-
.	16b-	16f	16d
.	16cc	16g	16e-
=149	=149	=149	=149
8ff]	4.dd	4.a-	4.f
16ccc	.	.	.
16bb-	.	.	.
8bb-	.	.	.
8bb-	8dd	8a-	8f
=150	=150	=150	=150
8bb-	4ee-	4b-	4g
16ccc	.	.	.
16bb-	.	.	.
[4bb-	8dd	8a-	8f
.	16cc	16g	16e-
.	16dd	16a-	16f
=151	=151	=151	=151
8bb-]	4ee-	4b-	4g
16ccc	.	.	.
16bb-	.	.	.
[4bb-	8dd	8a-	8f
.	16cc	16g	16e-
.	16dd	16a-	16f
=152	=152	=152	=152
16bb-]	[2ee-	2b-	2g
16ddd	.	.	.
16eee-	.	.	.
16ddd	.	.	.
16eee-	.	.	.
16ddd	.	.	.
16ccc	.	.	.
16bb-	.	.	.
=153	=153	=153	=153
16aa	2ee-_	[2cc	2g-
16ccc	.	.	.
16eee-	.	.	.
16ccc	.	.	.
16eee-	.	.	.
16ccc	.	.	.
16aa	.	.	.
16ccc	.	.	.
=154	=154	=154	=154
16aa	2ee-_	2cc_	8f
16ccc	.	.	.
16eee-	.	.	8g-
16ccc	.	.	.
16aa	.	.	8f
16ccc	.	.	.
16eee-	.	.	8g-
16ccc	.	.	.
=155	=155	=155	=155
16aa	4ee-]	4.cc]	2f
16bb-	.	.	.
16ccc	.	.	.
16bb-	.	.	.
16aa	4cc	.	.
16gg	.	.	.
16ff	.	8a	.
16ee-	.	.	.
=156	=156	=156	=156
16dd	4dd	4b-	4B-
16aa	.	.	.
16bb-	.	.	.
16aa	.	.	.
16bb-	4r	4r	4r
16ff#	.	.	.
16gg	.	.	.
16ff#	.	.	.
=157	=157	=157	=157
16gg	16r	2r	2r
16dd	16d	.	.
16ee-	16e-	.	.
16dd	16d	.	.
16ee-	16e-	.	.
16b	16B	.	.
16cc	16c	.	.
16b	16B	.	.
=158	=158	=158	=158
16cc	16c	16r	4r
16g	16g	16G	.
16a-	16a-	16A-	.
16g	16g	16G	.
16a-	16a-	16A-	16r
16f#	16f#	16F#	16F#
16g	16g	16G	16G
16f#	16f#	16F#	16F#
=159	=159	=159	=159
16g	16g	16G	16G
16d	16d	16D	16D
16e-	16e-	16E-	16E-
16d	16d	16D	16D
16e-	16e-	16E-	16E-
16B	16B	16D	16BB
16c	16c	16C	16C
16B	16B	16D	16BB
=160	=160	=160	=160
8c	8c	8C	8C
8e-	8e-	8E-	8E-
8g	8g	8G	8G
8b	8B	8B	8B
=161	=161	=161	=161
8cc	8c	4c	4c
8ee-	8e-	.	.
8ff#	8f#	4r	4r
8gg	8g	.	.
=162	=162	=162	=162
8f	8f	8F	8F
8ff	8dd	8r	8r
8r	8r	8c	8F
8ee-	8cc	8r	8r
=163	=163	=163	=163
8r	8r	8d	8F
8dd	8b-	8r	8r
8r	8r	8e-	8F
8cc	8a	8r	8r
=164	=164	=164	=164
[2bb-	8r	8r	4BB-
.	8dd	8f	.
.	8b-	8d	4r
.	8ee-	8g	.
=165	=165	=165	=165
4.bb-]	8cc	8e-	4.r
.	8ff	8a-	.
.	8dd	8f	.
8aa-	8e-	8F	8c
=166	=166	=166	=166
8gg	2d	[2G	2B
8ff#	.	.	.
8gg	.	.	.
8ff	.	.	.
=167	=167	=167	=167
8ee-	8e-	8G]	4c
4ccc	8ee-	8g	.
.	8cc	8e-	4r
[8ccc	8ff	8a-	.
=168	=168	=168	=168
8ccc]	8dd	8f	4.r
4ccc	8gg	8b-	.
.	8ee	8g	.
8bb-	8gg	8cc	8e
=169	=169	=169	=169
4.aa	8ff	8f	4.f
.	8ee-	8cc	.
.	[4cc	[4a	.
8ccc	.	.	8a
=170	=170	=170	=170
4.aa	8cc]	8a]	4.f
.	8ee-	8cc	.
.	4cc	[4a	.
8ccc	.	.	8a
=171	=171	=171	=171
4.aa	8ee-	8a]	4.f
.	8gg-	8ee-	.
.	[4ee-	[4cc	.
8ccc	.	.	8a
=172	=172	=172	=172
4.aa	8ee-]	8cc]	4.f
.	8gg-	8ee-	.
.	[4ee-	[4cc	.
8ccc	.	.	8a
=173	=173	=173	=173
8aa	8ee-]	8cc]	8f
4.r	8gg-	8ee-	4.r
.	8ee-	8cc	.
.	8gg-	8ee-	.
=174	=174	=174	=174
2r	8ee-	8cc	2r
.	8gg-	8ee-	.
.	8ee-	8cc	.
.	8gg-	8ee-	.
=175	=175	=175	=175
4.r	8ee-	8cc	4.r
.	8gg-	8ee-	.
.	8ee-	8cc	.
[8aa-	8gg-	8ee-	8c
=176	=176	=176	=176
8aa-]	8ee-	8cc	8e-
4aa-	8gg-	8ee-	8c
.	8ee-	8cc	8e-
8aa-	8gg-	8ee-	8c
=177	=177	=177	=177
16gg	8ee-	4g-	4e-
16aa-	.	.	.
16bb-	8cc	.	.
16aa-	.	.	.
16gg-	8ee-	8c	4AA-
16ff	.	.	.
16gg-	8cc	8e-	.
16ee-	.	.	.
=178	=178	=178	=178
8dd-	2a-	2f	[2D-
4dd-	.	.	.
16ff	.	.	.
16dd-	.	.	.
=179	=179	=179	=179
16cc	2g-	2e-	2D-]
16dd-	.	.	.
16ee-	.	.	.
16cc	.	.	.
16a-	.	.	.
16b-	.	.	.
16cc	.	.	.
16a-	.	.	.
=180	=180	=180	=180
8dd-	8f	8f	8D-
4dd-	4a-	4f	4D-
8aa-	8a-	8f	[8D-
=181	=181	=181	=181
16gg	8cc 8g-	8e-	8D-]
16aa-	.	.	.
16bb-	4cc 4g-	4e-	4D-
16aa-	.	.	.
16gg-	.	.	.
16ff	.	.	.
16gg-	8cc 8g-	8e-	[8D-
16ee-	.	.	.
=182	=182	=182	=182
8dd-	8dd- 8f	8f	8D-]
4dd-	4a-	4f	4D-
8ff	8a-	8f	8D-
=183	=183	=183	=183
16ee	8f	8e- 8c	8AA
16ff	.	.	.
16gg-	4f	4c 4e-	4AA
16ff	.	.	.
16ee-	.	.	.
16dd-	.	.	.
16ee-	8f	8c 8e-	8AA
16cc	.	.	.
=184	=184	=184	=184
8b-	8f	8d-	8BB-
4b-	4f	4d-	4BB-
16dd-	8f	8d-	8BB-
16cc	.	.	.
=185	=185	=185	=185
16a	8e	8B-	8GG-
16b-	.	.	.
16cc	4e	4B-	4GG-
16b-	.	.	.
8dd-	.	.	.
8e	8e	8B-	8GG-
=186	=186	=186	=186
16f	4f	8A	[2FF
16a	.	.	.
16g	.	8B-	.
16b-	.	.	.
16a	8r	8c	.
16f	.	.	.
16g	8c	8B-	.
16e	.	.	.
=187	=187	=187	=187
16f	4f	8A	2FF_
16a	.	.	.
16g	.	8B-	.
16b-	.	.	.
16a	8r	8c	.
16f	.	.	.
16g	8c	8B-	.
16e	.	.	.
=188	=188	=188	=188
16f	8f	4F	2FF_
16a	.	.	.
16g	8e	.	.
16b-	.	.	.
16a	8e-	4r	.
16cc	.	.	.
16b-	8d	.	.
16dd	.	.	.
=189	=189	=189	=189
16cc	8A	2r	2FF]
16ee-	.	.	.
16dd	8B-	.	.
16ff	.	.	.
16ee-	8c	.	.
16gg	.	.	.
16ff	8a	.	.
16ee-	.	.	.
=190	=190	=190	=190
16dd	16b-	4.r	4BB-
16ff	16dd	.	.
16ee-	16cc	.	.
16dd	16b-	.	.
16cc	16a	.	8r
16ee-	16cc	.	.
16dd	16b-	16f	8F
16cc	16a	16e-	.
=191	=191	=191	=191
4dd	4b-	16d	16B-
.	.	16f	16d
.	.	16e-	16c
.	.	16d	16B-
8r	4r	16c	16A
.	.	16e-	16c
16gg	.	16d	16B-
16ff	.	16c	16A
=192	=192	=192	=192
16dd	16b-	4d	4B-
16ff	16dd	.	.
16ee-	16cc	.	.
16dd	16b-	.	.
16cc	16a	4r	8r
16ee-	16cc	.	.
16dd	16b-	.	8F
16cc	16a	.	.
=193	=193	=193	=193
8dd	4b-	16d	16B-
.	.	16f	16d
4ff	.	16e-	16c
.	.	16d	16B-
.	4r	16c	16A
.	.	16e-	16c
8ff	.	16d	16B-
.	.	16c	16A
=194	=194	=194	=194
16ff	2r	16B-	16G
16dd	.	16d	16B-
16ee-	.	16c	16A
16ee-	.	16B-	16G
16ee-	.	16A	16F
16cc	.	16c	16A
16dd	.	16B-	16G
16dd	.	16A	16F
=195	=195	=195	=195
16dd	16g	4G	16E-
16g	16b-	.	16G
16cc	16a	.	16F
16cc	16g	.	16E-
16cc	16f	4r	16D
16a	16a	.	16F
16b-	16g	.	16E-
16b-	16f	.	16D
=196	=196	=196	=196
16a	2e-	4r	4C
16b-	.	.	.
16cc	.	.	.
16dd	.	.	.
16ee-	.	4cc	4FF
16ff	.	.	.
16gg	.	.	.
16aa	.	.	.
=197	=197	=197	=197
4.bb-	8d	8dd	4BB-
.	4ff	8dd	.
.	.	8dd	4r
16ccc	8ff	8ee-	.
16aa	.	.	.
=198	=198	=198	=198
16bb-	[2ff	8dd	2r
16ddd	.	.	.
16ccc	.	8ee-	.
16aa	.	.	.
16bb-	.	8dd	.
16ddd	.	.	.
16ccc	.	8ee-	.
16aa	.	.	.
=199	=199	=199	=199
8bb-	2ff_	8dd	2r
4bb-	.	8dd	.
.	.	8dd	.
16ccc	.	8ee-	.
16aa	.	.	.
=200	=200	=200	=200
16bb-	2ff]	8dd	2r
16ddd	.	.	.
16ccc	.	8ee-	.
16aa	.	.	.
16bb-	.	8dd	.
16ddd	.	.	.
16ccc	.	8ee-	.
16aa	.	.	.
=201	=201	=201	=201
16bb-	2ff 2b-	4dd	2r
16ccc	.	.	.
16ddd	.	.	.
16eee-	.	.	.
16fff	.	4d	.
16ggg	.	.	.
16aaa	.	.	.
16bbb-	.	.	.
=202	=202	=202	=202
8bbb-	4gg 4b-	8e-	2r
8ggg	.	8r	.
8r	8r	8e-	.
8eee-	8cc	8r	.
=203	=203	=203	=203
8r	8r	8f	2r
8ddd	8b-	8r	.
8r	8r	8e-	.
8ccc	8a	8r	.
=204	=204	=204	=204
8fff	8dd	8r	8r
8r	8r	8f	8d
8eee-	8cc	8r	8r
8r	8r	8e-	8c
=205	=205	=205	=205
8ddd	8b-	8r	8r
8r	8r	8d	8B-
8ccc	8f	8r	8r
8r	8r	8c	8F
=206	=206	=206	=206
24bb-	8d	8r	8r
24bb-	.	.	.
24bb-	.	.	.
8r	8b-	8B-	8G
24gg	8r	4r	8r
24gg	.	.	.
24gg	.	.	.
8r	8b-	.	8g
=207	=207	=207	=207
24ff	8r	2r	8r
24ff	.	.	.
24ff	.	.	.
8r	8b-	.	8g
24ee	8r	.	8r
24ee	.	.	.
24ee	.	.	.
8r	8b-	.	8g
=208	=208	=208	=208
[2ff	2a	2r	8f
.	.	.	8f
.	.	.	8f
.	.	.	8f
=209	=209	=209	=209
8ff]	2a-	2r	8f
8ee-	.	.	8f
8dd	.	.	8f
8cc	.	.	8f
=210	=210	=210	=210
8b	8d	4a-	4f
4dd	4b	.	.
.	.	8g	8e-
8ee-	8cc	8r	8r
=211	=211	=211	=211
8r	8r	4g-	4e-
4cc	4a	.	.
.	.	4f	8d
[8dd	[8b-	.	8BB-
=212	=212	=212	=212
8dd]	8b-]	8g	4E-
8cc	8g	8e-	.
8b-	8f	8d	4F
8a	8e-	8c	.
=213	=213	=213	=213
4aa-	4b	8r	8r
.	.	4f	4d
8gg	8cc	.	.
8r	8r	8e-	8e-
=214	=214	=214	=214
4gg-	4a	8r	8r
.	.	4e-	4c
[4ff	4b-	.	.
.	.	8d	8d
=215	=215	=215	=215
8ff]	4g	8e-	8e-
8ee-	.	8cc	8C
8dd	8f	8b-	8F
8cc	8e-	8a	8F
=216	=216	=216	=216
4b-	8d	8b-	8B-
.	4f 4d	4f	8B-
8r	.	.	8B-
8b-	8f 8d	[8f	8B-
=217	=217	=217	=217
16a	8e- 8c	8f]	8B-
16b-	.	.	.
16cc	4e- 4c	4f	8B-
16b-	.	.	.
16a	.	.	8B-
16f	.	.	.
16g	8e- 8c	[8f	8B-
16a	.	.	.
=218	=218	=218	=218
8b-	8d 8B-	8f]	8B-
4b-	4f 4d	4f	8B-
.	.	.	8B-
16dd	8f 8d	[8f	8B-
16b-	.	.	.
=219	=219	=219	=219
16a	8e- 8c	8f]	8B-
16b-	.	.	.
16cc	4e- 4c	4f	8B-
16b-	.	.	.
16a	.	.	8B-
16f	.	.	.
16g	8e- 8c	[8f	8B-
16a	.	.	.
=220	=220	=220	=220
4.b-	8d 8B-	8f]	8BB-
.	4b- 4d	4F	4BB-
8bb-	8b- 8d	[8F	[8BB-
=221	=221	=221	=221
16aa	8e- 8cc	8F]	8BB-]
16bb-	.	.	.
16ccc	4cc 4e-	4F	4BB-
16bb-	.	.	.
16aa	.	.	.
16ff	.	.	.
16gg	8cc 8e-	[8F	[8BB-
16aa	.	.	.
=222	=222	=222	=222
8bb-	8b- 8d	8F]	8BB-]
4bb-	4b- 4d	4F	4BB-
16ddd	8b- 8d	[8F	[8BB-
16bb-	.	.	.
=223	=223	=223	=223
16aa	8e- 8cc	8F]	8BB-]
16bb-	.	.	.
16ccc	4cc 4e-	4F	4BB-
16bb-	.	.	.
16aa	.	.	.
16ff	.	.	.
16gg	8e- 8cc	8F	8BB-
16aa	.	.	.
=224	=224	=224	=224
4.bb-	4.b- 4.d	8F	[2BB-
.	.	8d	.
.	.	8f	.
8ff	8dd	8b-	.
=225	=225	=225	=225
2gg-	2ee-	16a	2BB-_
.	.	16b-	.
.	.	16cc	.
.	.	16b-	.
.	.	16a	.
.	.	16g	.
.	.	16a	.
.	.	16f	.
=226	=226	=226	=226
8ff	4.dd	4.b-	2BB-_
8bb-	.	.	.
8ddd	.	.	.
8b-	8f	8d	.
=227	=227	=227	=227
16a	2g-	2e-	2BB-_
16b-	.	.	.
16cc	.	.	.
16b-	.	.	.
16a	.	.	.
16ee-	.	.	.
16cc	.	.	.
16a	.	.	.
=228	=228	=228	=228
8b-	4.f	4d	4.BB-]
8dd	.	.	.
8ff	.	4r	.
8f	8d	.	8BB-
=229	=229	=229	=229
2g-	2e-	2r	16AA
.	.	.	16BB-
.	.	.	16C
.	.	.	16BB-
.	.	.	16AA
.	.	.	16FF
.	.	.	16GG
.	.	.	16AA
=230	=230	=230	=230
8f	4.d	4.r	2BB-
8b-	.	.	.
8dd	.	.	.
8b-	8d	8F	.
=231	=231	=231	=231
2a	16B	16D	2FF
.	16c	16E-	.
.	16d	16F	.
.	16c	16E-	.
.	16e-	16C	.
.	16c	16E-	.
.	16e-	16C	.
.	16c	16E-	.
=232	=232	=232	=232
2b-	8B-	8D	2BB-
.	8d	8F	.
.	8B-	8D	.
.	8d	8F	.
=233	=233	=233	=233
2a	16B	16D	2FF
.	16c	16E-	.
.	16d	16F	.
.	16c	16E-	.
.	16e-	16C	.
.	16c	16E-	.
.	16e-	16C	.
.	16c	16E-	.
=234	=234	=234	=234
8b-	8d	8D	8BB-
8r	8r	8r	8r
8dd	8f	8D	8BB-
8r	8r	8r	8r
=235	=235	=235	=235
4b-	4d	4D	4BB-
4r	4r	4r	4r
==	==	==	==
*-	*-	*-	*-
!!!RWG1: This file contains only pitch and duration data.
!!!RWG2: Transposing instruments are not transposed.
!!!RWG3: Spines may have incompatible meters.
!!!RWG4: Durations of rests and tied notes may be interpreted.
!!!RWG: Key is interpreted using the Humdrum key tool.
!!!GTL: 6 Quartetti ("Apponyi")
!!!AFT: stage1
!!!END: 1997/04/15
!!format changes:
!!content changes:
!!public access: complete
!!!KEY: 3364015632
!!!EMD: Converted from MuseData to Humdrum Dec 16, 2000, by Andreas Kornstaedt using muse2kern.
